X: 1344
T: The Cashmere Shawl
R:Reel
N:Collected by Kennedy
B:O'Neill's 1344
Z:Transcribed by Trish O'Neil
M:C|
L:1/8
K:C
(BG)|A2AB AGED|EGAB {d}c2(BG)|AcBG AGEa|gedB{d}c2:|
(cd)|ecgc eccg|ecged2(cd)|ecgc eccg|a^fged2(cd)|
ecgc eccg|ecged2(cd)|e^fg2eaa2|gedc{d}c2|]


